data/flags/flag_gb.svg

<?xml version="1.0" standalone="no"?>
<!DOCTYPE svg>
<svg version="1.1" baseProfile="full" xmlns:ev="http://www.w3.org/2001/xml-events" xmlns:xlink="http://www.w3.org/1999/xlink" xmlns="http://www.w3.org/2000/svg" preserveAspectRatio="xMidYMid meet" zoomAndPan="magnify"
   id="Union Jack"
   viewBox="-15 -7.5 30 15"
   width="1200" height="600">

  <defs>
    <clipPath id="border">
      <rect x="-15" y="-7.5" width="30" height="15"/>
    </clipPath>
  </defs>

  <g clip-path="url(#border)">
    <circle r="20" fill="#00247D"/>
    <path d="M -20,-10 L 20,10 M -20,10 L 20,-10" stroke-width="3" stroke="white" id="diags_white"/>
    <path d="M -20,-10 L 20,10 M -20,10 L 20,-10" stroke-width="2" stroke="#CF142B" id="diags_red"/>
    <path stroke="none" fill="white" d="M 0,0 l 20,10 h -3 l -20,-10 M 0,0 l 20,-10 h 3 l -20,10 M 0,0 l -20,10 h -3 l 20,-10 M 0,0 l -20,-10 h 3 l 20,10" id="eraser_white"/>
<comment>I think the above two lines give the simplest way to make the diagonals</comment>
    <path d="M -20,0 H 20 M 0,-10 V 10" stroke-width="5" stroke="white" id="cross_white"/>
    <path d="M -20,0 H 20 M 0,-10 V 10" stroke-width="3" stroke="#CF142B" id="cross_red"/>
  </g>
</svg>

<?xml version="1.0" encoding="UTF-8" standalone="no"?>
<!-- Created with Inkscape (http://www.inkscape.org/) -->
<svg
   xmlns:svg="http://www.w3.org/2000/svg"
   xmlns="http://www.w3.org/2000/svg"
   version="1.0"
   width="1200"
   height="600"
   viewBox="-15 -7.5 30 15"
   id="Union Jack">
  <defs
     id="defs2106">
    <clipPath
       id="border">
      <rect
         width="30"
         height="15"
         x="-15"
         y="-7.5"
         id="rect2109" />
    </clipPath>
  </defs>
  <g
     clip-path="url(#border)"
     id="g2111">
    <circle
       cx="0"
       cy="0"
       r="20"
       style="fill:#00247d"
       id="circle2113" />
    <path
       d="M -20,-10 L 20,10 M -20,10 L 20,-10"
       style="stroke:white;stroke-width:3"
       id="diags_white" />
    <path
       d="M -20,-10 L 20,10 M -20,10 L 20,-10"
       style="stroke:#cf142b;stroke-width:2"
       id="diags_red" />
    <path
       d="M 0,0 L 20,10 L 17,10 L -3,0 M 0,0 L 20,-10 L 23,-10 L 3,0 M 0,0 L -20,10 L -23,10 L -3,0 M 0,0 L -20,-10 L -17,-10 L 3,0"
       style="fill:white;stroke:none"
       id="eraser_white" />
    <comment
       id="comment2118">I think the above two lines give the simplest way to make the diagonals</comment>
    <path
       d="M -20,0 L 20,0 M 0,-10 L 0,10"
       style="stroke:white;stroke-width:5"
       id="cross_white" />
    <path
       d="M -20,0 L 20,0 M 0,-10 L 0,10"
       style="stroke:#cf142b;stroke-width:3"
       id="cross_red" />
  </g>
</svg>
